static/assets/img/icons/theme/code/warning-2.svg

<svg height="24" viewBox="0 0 24 24" width="24" xmlns="http://www.w3.org/2000/svg"><g fill="none" fill-rule="evenodd"><path d="m0 0h24v24h-24z" opacity="0"/><g fill="#000"><path d="m11.1669899 4.49941818-8.34163272 15.01493892c-.26821318.4827837-.09426938 1.091587.38851435 1.3598002.148558.0825322.31569868.1258427.48564293.1258427h17.51742874c.5522847 0 1-.4477153 1-1 0-.1840048-.0507689-.3644421-.1467182-.52145l-9.175796-15.0149389c-.2879889-.47125454-.9034773-.61982071-1.3747318-.33183182-.1473378.09003974-.2688504.21669655-.3527073.3676389z" opacity=".3"/><rect height="7" rx="1" width="2" x="11" y="9"/><rect height="2" rx="1" width="2" x="11" y="17"/></g></g></svg>

<svg width="24px" height="24px" viewBox="0 0 24 24" version="1.1" xmlns="http://www.w3.org/2000/svg" xmlns:xlink="http://www.w3.org/1999/xlink">
    <title>Icon For Warning-2</title>
    <g stroke="none" stroke-width="1" fill="none" fill-rule="evenodd">
        <rect opacity="0" x="0" y="0" width="24" height="24"></rect>
        <path d="M11.1669899,4.49941818 L2.82535718,19.5143571 C2.557144,19.9971408 2.7310878,20.6059441 3.21387153,20.8741573 C3.36242953,20.9566895 3.52957021,21 3.69951446,21 L21.2169432,21 C21.7692279,21 22.2169432,20.5522847 22.2169432,20 C22.2169432,19.8159952 22.1661743,19.6355579 22.070225,19.47855 L12.894429,4.4636111 C12.6064401,3.99235656 11.9909517,3.84379039 11.5196972,4.13177928 C11.3723594,4.22181902 11.2508468,4.34847583 11.1669899,4.49941818 Z" fill="#000000" opacity="0.3"></path>
        <rect fill="#000000" x="11" y="9" width="2" height="7" rx="1"></rect>
        <rect fill="#000000" x="11" y="17" width="2" height="2" rx="1"></rect>
    </g>
</svg>
